X: 28
T: Unst Bridal March
S: Hanneke Cassel, Boston Harbor 2011 (page in Concord Slow Scottish Jam collection)
R: march, waltz
B: Haand me doon da fiddle, 1979  (in G)
Z: 2012 John Chambers <jc:trillian.mit.edu>
M: 3/4
L: 1/8
K: A
a2 |\
"A"A2 A2 "E/g#"BA/B/ | "A"c4 e2 | "D"f>g a2 "F#m"c2 |[M:4/4] "E7"BA HB4 a/g/a/f/ |[M:3/4]\
"A"e2 A2 AB | "A/c#"c2 e2 "D"Bd | "A"c2 A2 "D"A2 | "A"A4 :|
{ag}ua2 |\
"D"(f2 "(A)"e2) a2 | "D"(f2 "(A)"e2) a2 | "D"(f2 "(A)"e2) a2 | "D"f4 "E7"e2 |\
"Bm"f>g a2 "(A)"e2 | "D"f>g a2 "(A)"e2 | "D"f>g a2 "E"a2 | "A"a4 c2 |
"E7"d2 d2 cB | "A"c2 A2 e2 | "D"f>g a2 "F#m"c2 |[M:4/4] "E7"BA HB4 a/g/a/f/ |[M:3/4]\
"A"e2 A2 A>B | "A"c2 e2 "D"Bd | "A"c2 A2 "D"A2 | "A"A4 |]

%%sep 1 1 500

